assets/images/icons/cursors/cursor_drag.svg

<svg fill="none" height="100" viewBox="0 0 100 100" width="100" xmlns="http://www.w3.org/2000/svg"><path d="m49 3h11v5h10v5h4v6h6v5h5v49h-5v25h-15v-5h-5v5h-25v-5h-5v-15h-5v-5h-5v-5h-5v-10h-5v-5h-5v-10h5v-5h10v5h5v5h5v-35h5v-5h14z" fill="#fff"/><g fill="#000"><path d="m49 3h11v5h10v5h4v6h6v5h-6v19h-5v-30h-7v30h-5v-35h-8z"/><path d="m35 13v-5h14v35h-5v-30z"/><path d="m25 48h5v-35h5v45h-5v-5h-5z"/><path d="m20 43h5v5h-5z"/><path d="m10 43v-5h10v5z"/><path d="m10 53h-5v-10h5z"/><path d="m15 58h-5v-5h5z"/><path d="m20 68h-5v-10h5z"/><path d="m25 73h-5v-5h5z"/><path d="m30 78h-5v-5h5z"/><path d="m35 93h-5v-15h5z"/><path d="m60 93v5h-25v-5z"/><path d="m65 93h-5v-5h5z"/><path d="m75 73v20h-10v5h15v-25h5v-49h-5v49z"/><path d="m75 73h-5v-20h5z"/><path d="m62 53h-5v20h5z"/><path d="m44 53h5v20h-5z"/></g></svg>

<svg width="100" height="100" viewBox="0 0 100 100" fill="none" xmlns="http://www.w3.org/2000/svg">
<path d="M49 3H60V8H70V13H74V19H80V24H85V73H80V98H65V93H60V98H35V93H30V78H25V73H20V68H15V58H10V53H5V43H10V38H20V43H25V48H30V13H35V8H49V3Z" fill="white"/>
<path d="M49 3H60V8H70V13H74V19H80V24H74V43H69V13H62V43H57V8H49V3Z" fill="black"/>
<path d="M35 13V8H49V43H44V13H35Z" fill="black"/>
<path d="M25 48H30V13H35V58H30V53H25V48Z" fill="black"/>
<path d="M20 43H25V48H20V43Z" fill="black"/>
<path d="M10 43V38H20V43H10Z" fill="black"/>
<path d="M10 53H5V43H10V53Z" fill="black"/>
<path d="M15 58H10V53H15V58Z" fill="black"/>
<path d="M20 68H15V58H20V68Z" fill="black"/>
<path d="M25 73H20V68H25V73Z" fill="black"/>
<path d="M30 78H25V73H30V78Z" fill="black"/>
<path d="M35 93H30V78H35V93Z" fill="black"/>
<path d="M60 93V98H35V93H60Z" fill="black"/>
<path d="M65 93H60V88H65V93Z" fill="black"/>
<path d="M75 73V93H65V98H80V73H85V24H80V73H75Z" fill="black"/>
<path d="M75 73H70V53H75V73Z" fill="black"/>
<path d="M62 53H57V73H62V53Z" fill="black"/>
<path d="M44 53H49V73H44V53Z" fill="black"/>
</svg>
